ix/messages-2_twotone.svg

<svg viewBox="0 0 24 24" fill="none" xmlns="http://www.w3.org/2000/svg" height="1em" width="1em">
  <path opacity="0.4" d="M18.4698 16.83L18.8598 19.99C18.9598 20.82 18.0698 21.4 17.3598 20.97L13.1698 18.48C12.7098 18.48 12.2599 18.45 11.8199 18.39C12.5599 17.52 12.9998 16.42 12.9998 15.23C12.9998 12.39 10.5398 10.09 7.49985 10.09C6.33985 10.09 5.26985 10.42 4.37985 11C4.34985 10.75 4.33984 10.5 4.33984 10.24C4.33984 5.68999 8.28985 2 13.1698 2C18.0498 2 21.9998 5.68999 21.9998 10.24C21.9998 12.94 20.6098 15.33 18.4698 16.83Z" stroke="#292D32" stroke-width="1.5" stroke-linecap="round" stroke-linejoin="round"/>
  <path d="M13 15.2298C13 16.4198 12.56 17.5198 11.82 18.3898C10.83 19.5898 9.26 20.3598 7.5 20.3598L4.89 21.9098C4.45 22.1798 3.89 21.8098 3.95 21.2998L4.2 19.3298C2.86 18.3998 2 16.9098 2 15.2298C2 13.4698 2.94 11.9198 4.38 10.9998C5.27 10.4198 6.34 10.0898 7.5 10.0898C10.54 10.0898 13 12.3898 13 15.2298Z" stroke="#292D32" stroke-width="1.5" stroke-linecap="round" stroke-linejoin="round"/>
</svg>

<svg viewBox="0 0 24 24" fill="none" xmlns="http://www.w3.org/2000/svg" height="1em" width="1em">
  <path opacity=".4" d="m18.47 16.83.39 3.16c.1.83-.79 1.41-1.5.98l-4.19-2.49c-.46 0-.91-.03-1.35-.09A4.86 4.86 0 0 0 13 15.23c0-2.84-2.46-5.14-5.5-5.14-1.16 0-2.23.33-3.12.91-.03-.25-.04-.5-.04-.76C4.34 5.69 8.29 2 13.17 2S22 5.69 22 10.24c0 2.7-1.39 5.09-3.53 6.59Z" stroke="#292D32" stroke-width="1.5" stroke-linecap="round" stroke-linejoin="round"/>
  <path d="M13 15.23c0 1.19-.44 2.29-1.18 3.16-.99 1.2-2.56 1.97-4.32 1.97l-2.61 1.55c-.44.27-1-.1-.94-.61l.25-1.97C2.86 18.4 2 16.91 2 15.23c0-1.76.94-3.31 2.38-4.23.89-.58 1.96-.91 3.12-.91 3.04 0 5.5 2.3 5.5 5.14Z" stroke="#292D32" stroke-width="1.5" stroke-linecap="round" stroke-linejoin="round"/>
</svg>
